svg/fluentui-system-icons/ic_fluent_call_forward_16_filled.svg

<svg width="16" height="16" viewBox="0 0 16 16" fill="none" xmlns="http://www.w3.org/2000/svg">
<path d="M6.70072 1.17318L5.94626 1.03504C5.19816 0.898074 4.41344 1.16834 3.88345 1.74548C2.62393 3.1171 1.99613 5.25994 2.00002 8.17401C2.00397 11.0839 2.63562 13.162 3.895 14.4084C4.42844 14.9364 5.2188 15.1287 5.9698 14.9132L6.72431 14.6968C7.42835 14.4948 7.89851 13.8135 7.82422 13.1029L7.67534 11.6789C7.61143 11.0676 7.15772 10.585 6.54946 10.4812L4.94475 10.2075C4.62535 9.52978 4.45368 8.79709 4.42973 8.00938C4.40578 7.22167 4.53327 6.50078 4.81219 5.8467L6.52643 5.40479C7.14246 5.24599 7.60347 4.71419 7.66619 4.09001L7.81012 2.65765C7.88245 1.93788 7.40769 1.30262 6.70072 1.17318ZM11.8536 4.14645C11.6583 3.95118 11.3417 3.95118 11.1464 4.14645C10.9512 4.34171 10.9512 4.65829 11.1464 4.85355L13.2929 7H8.5C8.22386 7 8 7.22386 8 7.5C8 7.77614 8.22386 8 8.5 8H13.2929L11.1464 10.1464C10.9512 10.3417 10.9512 10.6583 11.1464 10.8536C11.3417 11.0488 11.6583 11.0488 11.8536 10.8536L14.8536 7.85355C15.0488 7.65829 15.0488 7.34171 14.8536 7.14645L11.8536 4.14645Z" fill="#212121"/>
</svg>

<svg xmlns="http://www.w3.org/2000/svg" width="16" height="16"><path d="m6.7 1.173-.754-.138a2.266 2.266 0 0 0-2.063.71C2.623 3.117 1.996 5.26 2 8.174c.004 2.91.636 4.988 1.895 6.234.533.528 1.324.72 2.075.505l.754-.216c.704-.202 1.175-.883 1.1-1.594l-.149-1.424A1.35 1.35 0 0 0 6.55 10.48l-1.604-.274A5.49 5.49 0 0 1 4.43 8.01c-.024-.787.103-1.508.382-2.162l1.714-.442a1.532 1.532 0 0 0 1.14-1.315l.144-1.432A1.354 1.354 0 0 0 6.7 1.173Zm5.154 2.973a.5.5 0 0 0-.708.708L13.293 7H8.5a.5.5 0 0 0 0 1h4.793l-2.147 2.146a.5.5 0 0 0 .708.708l3-3a.5.5 0 0 0 0-.708l-3-3Z"/></svg>
